X: 1
T: Mad, The
M: 6/8
L: 1/8
R: jig
K: Amix
|:efe edB|~g3 afd|efe dBA|BAB GED|
efe edB|~g3 afd|efe dBA|Bee ~e3:|
|:ebb ebb|ebb baf|dfa dfa|dfa afd|
~g3 aga|bge fga|bge dBA|Bee ~e3:|
